X:1
T:Repeal the Poll Tax
R:Reel
O:Scotland
M:C|
C:Sandy Mathers
%%Copyright:Sandy Mathers
Z:Richard Robinson <richard@beulah.demon.co.uk>
Z:Chords by Terry Traub and John Chambers
K:A
AB \
| \
| "A"ceec  "E7"dcBc \
| "F#m"AFEF "A"A2FA \
| "Bm"B2BA "A"cefe \
|1 "D"afec  "E7"B2 \
:|2 "D"af"E7"ec "A"A2 :|
|: ce \
| \
| "F#m"f2fe "D"faaf \
| "E"feef "F#m"c2ec \
| "Bm"B2BA "A"cefe \
|1 "D"afec  "E7"B2 \
:|2 "D"af"E7"ec "A"A2 :|
